icons/4_Outdated/Instagram v1.svg

<svg width="1024" height="1024" fill="none" xmlns="http://www.w3.org/2000/svg"><g clip-path="url(#a)"><path d="M512 1024c282.77 0 512-229.23 512-512S794.77 0 512 0 0 229.23 0 512s229.23 512 512 512Z" fill="#BA6561"/><path d="M512 256c-69.55 0-78.23.32-105.54 1.54-27.31 1.22-45.82 5.57-62.14 11.9a130.827 130.827 0 0 0-74.88 74.88c-6.34 16.32-10.65 34.88-11.9 62.14C256.29 433.72 256 442.45 256 512c0 69.55.32 78.23 1.54 105.54 1.22 27.31 5.57 45.82 11.9 62.14a130.837 130.837 0 0 0 74.88 74.88c16.34 6.31 34.9 10.65 62.14 11.9C433.7 767.71 442.45 768 512 768c69.55 0 78.23-.32 105.54-1.54 27.31-1.22 45.82-5.59 62.14-11.9a130.837 130.837 0 0 0 74.88-74.88c6.31-16.32 10.65-34.9 11.9-62.14C767.71 590.3 768 581.55 768 512c0-69.55-.32-78.23-1.54-105.54-1.22-27.31-5.59-45.85-11.9-62.14a130.827 130.827 0 0 0-74.88-74.88c-16.32-6.34-34.9-10.65-62.14-11.9C590.3 256.29 581.55 256 512 256Zm0 46.08c68.33 0 76.48.34 103.47 1.51 25 1.17 38.51 5.31 47.51 8.85A84.237 84.237 0 0 1 711.57 361c3.5 9 7.68 22.55 8.81 47.51 1.22 27 1.49 35.11 1.49 103.47s-.32 76.48-1.58 103.47c-1.3 25-5.46 38.51-9 47.51-4.78 12-10.22 20.48-19.18 29.48a79.866 79.866 0 0 1-29.44 19.11c-9 3.5-22.72 7.68-47.68 8.81-27.18 1.22-35.18 1.49-103.66 1.49-68.48 0-76.5-.32-103.66-1.58-25-1.3-38.74-5.46-47.7-9-12.14-4.78-20.48-10.22-29.42-19.18a77.724 77.724 0 0 1-19.2-29.44c-3.52-9-7.66-22.72-9-47.68-1-26.88-1.3-35.18-1.3-103.34s.34-76.5 1.3-103.7c1.3-25 5.44-38.7 9-47.66 4.48-12.16 10.22-20.48 19.2-29.46 8.98-8.98 17.28-14.7 29.42-19.16 9-3.54 22.42-7.7 47.38-9 27.2-1 35.2-1.28 103.66-1.28l.99.71Zm0 78.46A131.459 131.459 0 1 0 643.46 512a131.455 131.455 0 0 0-81.151-121.456A131.455 131.455 0 0 0 512 380.54Zm0 216.79a85.333 85.333 0 0 1-78.835-52.676 85.328 85.328 0 0 1 18.498-92.991A85.328 85.328 0 0 1 597.33 512a85.305 85.305 0 0 1-24.987 60.343A85.307 85.307 0 0 1 512 597.33Zm167.38-222a30.715 30.715 0 0 1-18.95 28.396 30.723 30.723 0 0 1-41.898-22.375 30.723 30.723 0 0 1 13.059-31.542 30.714 30.714 0 0 1 17.069-5.179 30.738 30.738 0 0 1 30.72 30.73v-.03Z" fill="#fff"/></g><defs><clipPath id="a"><path fill="#fff" d="M0 0h1024v1024H0z"/></clipPath></defs></svg>

<svg width="1024" height="1024" viewBox="0 0 1024 1024" fill="none" xmlns="http://www.w3.org/2000/svg">
<g clip-path="url(#clip0_3_578)">
<path d="M512 1024C794.77 1024 1024 794.77 1024 512C1024 229.23 794.77 0 512 0C229.23 0 0 229.23 0 512C0 794.77 229.23 1024 512 1024Z" fill="#BA6561"/>
<path d="M512 256C442.45 256 433.77 256.32 406.46 257.54C379.15 258.76 360.64 263.11 344.32 269.44C327.309 276.013 311.86 286.07 298.965 298.965C286.07 311.86 276.013 327.309 269.44 344.32C263.1 360.64 258.79 379.2 257.54 406.46C256.29 433.72 256 442.45 256 512C256 581.55 256.32 590.23 257.54 617.54C258.76 644.85 263.11 663.36 269.44 679.68C276.013 696.691 286.07 712.139 298.965 725.035C311.86 737.93 327.309 747.987 344.32 754.56C360.66 760.87 379.22 765.21 406.46 766.46C433.7 767.71 442.45 768 512 768C581.55 768 590.23 767.68 617.54 766.46C644.85 765.24 663.36 760.87 679.68 754.56C696.691 747.987 712.139 737.93 725.035 725.035C737.93 712.139 747.987 696.691 754.56 679.68C760.87 663.36 765.21 644.78 766.46 617.54C767.71 590.3 768 581.55 768 512C768 442.45 767.68 433.77 766.46 406.46C765.24 379.15 760.87 360.61 754.56 344.32C747.987 327.309 737.93 311.86 725.035 298.965C712.139 286.07 696.691 276.013 679.68 269.44C663.36 263.1 644.78 258.79 617.54 257.54C590.3 256.29 581.55 256 512 256ZM512 302.08C580.33 302.08 588.48 302.42 615.47 303.59C640.47 304.76 653.98 308.9 662.98 312.44C674.036 316.666 684.078 323.175 692.45 331.542C700.822 339.909 707.337 349.946 711.57 361C715.07 370 719.25 383.55 720.38 408.51C721.6 435.51 721.87 443.62 721.87 511.98C721.87 580.34 721.55 588.46 720.29 615.45C718.99 640.45 714.83 653.96 711.29 662.96C706.51 674.96 701.07 683.44 692.11 692.44C683.835 700.914 673.779 707.442 662.67 711.55C653.67 715.05 639.95 719.23 614.99 720.36C587.81 721.58 579.81 721.85 511.33 721.85C442.85 721.85 434.83 721.53 407.67 720.27C382.67 718.97 368.93 714.81 359.97 711.27C347.83 706.49 339.49 701.05 330.55 692.09C321.986 683.871 315.418 673.801 311.35 662.65C307.83 653.65 303.69 639.93 302.35 614.97C301.35 588.09 301.05 579.79 301.05 511.63C301.05 443.47 301.39 435.13 302.35 407.93C303.65 382.93 307.79 369.23 311.35 360.27C315.83 348.11 321.57 339.79 330.55 330.81C339.53 321.83 347.83 316.11 359.97 311.65C368.97 308.11 382.39 303.95 407.35 302.65C434.55 301.65 442.55 301.37 511.01 301.37L512 302.08ZM512 380.54C486 380.54 460.583 388.25 438.965 402.695C417.346 417.14 400.497 437.671 390.547 461.692C380.597 485.714 377.994 512.146 383.066 537.647C388.138 563.147 400.659 586.571 419.044 604.956C437.429 623.341 460.853 635.862 486.353 640.934C511.854 646.006 538.286 643.403 562.308 633.453C586.329 623.503 606.86 606.654 621.305 585.035C635.75 563.417 643.46 538 643.46 512C643.461 494.736 640.062 477.641 633.456 461.691C626.85 445.741 617.167 431.248 604.959 419.041C592.752 406.833 578.259 397.15 562.309 390.544C546.359 383.938 529.264 380.539 512 380.54ZM512 597.33C495.123 597.33 478.626 592.325 464.593 582.949C450.561 573.573 439.624 560.246 433.165 544.654C426.707 529.062 425.017 511.905 428.31 495.353C431.602 478.801 439.729 463.596 451.663 451.663C463.596 439.729 478.801 431.602 495.353 428.31C511.905 425.017 529.062 426.707 544.654 433.165C560.246 439.624 573.573 450.561 582.949 464.593C592.325 478.626 597.33 495.123 597.33 512C597.333 523.206 595.127 534.304 590.84 544.657C586.553 555.011 580.267 564.419 572.343 572.343C564.419 580.267 555.011 586.553 544.657 590.84C534.304 595.127 523.206 597.333 512 597.33ZM679.38 375.33C679.384 381.407 677.586 387.348 674.212 392.403C670.839 397.457 666.043 401.398 660.43 403.726C654.817 406.054 648.639 406.665 642.679 405.482C636.719 404.299 631.243 401.375 626.945 397.079C622.646 392.784 619.719 387.31 618.532 381.351C617.345 375.391 617.952 369.213 620.276 363.599C622.601 357.984 626.539 353.185 631.591 349.809C636.643 346.432 642.583 344.63 648.66 344.63C656.808 344.635 664.62 347.875 670.38 353.637C676.14 359.399 679.377 367.212 679.38 375.36V375.33Z" fill="white"/>
</g>
<defs>
<clipPath id="clip0_3_578">
<rect width="1024" height="1024" fill="white"/>
</clipPath>
</defs>
</svg>
